src/assets/outline/Messages1.svg

<svg width="24" height="24" viewBox="0 0 24 24"  xmlns="http://www.w3.org/2000/svg">
<path d="M7.25999 18.8898C7.17999 18.8898 7.1 18.8798 7.02 18.8698C6.42 18.7898 5.91 18.4098 5.66 17.8698L4.39999 15.0997C2.39999 13.6197 1.25 11.4098 1.25 9.00977C1.25 4.73977 4.95 1.25977 9.5 1.25977C12.71 1.25977 15.64 3.01976 16.97 5.74976C17.48 6.75976 17.75 7.85977 17.75 9.00977C17.75 13.1698 14.24 16.5798 9.86 16.7498L8.60001 18.2698C8.26001 18.6598 7.76999 18.8898 7.25999 18.8898ZM9.5 2.74976C5.78 2.74976 2.75 5.54976 2.75 8.99976C2.75 10.9698 3.72999 12.7897 5.42999 13.9897C5.53999 14.0697 5.62999 14.1697 5.67999 14.2897L7.02 17.2397C7.07 17.3497 7.17 17.3798 7.22 17.3798C7.27 17.3898 7.37 17.3797 7.44 17.2997L8.92 15.5198C9.06 15.3498 9.27 15.2498 9.5 15.2498C13.22 15.2498 16.25 12.4498 16.25 8.99976C16.25 8.08976 16.04 7.21973 15.63 6.40973C14.55 4.17973 12.14 2.74976 9.5 2.74976Z" />
<path d="M16.7401 22.7501C16.2201 22.7501 15.7401 22.5201 15.4001 22.1201L14.1401 20.6101C11.7201 20.5101 9.44008 19.4001 7.98008 17.6001C7.75008 17.3201 7.76009 16.9201 7.99009 16.6501L8.92008 15.5301C9.06008 15.3601 9.27008 15.2601 9.50008 15.2601C13.2201 15.2601 16.2501 12.4601 16.2501 9.01012C16.2501 8.10012 16.0401 7.23009 15.6301 6.42009C15.5001 6.16009 15.5301 5.8501 15.7101 5.6201C15.8901 5.3901 16.1901 5.29008 16.4701 5.35008C20.1701 6.20008 22.7501 9.2901 22.7501 12.8701C22.7501 15.2701 21.6001 17.4801 19.6001 18.9601L18.3401 21.7301C18.0801 22.2901 17.5701 22.6701 16.9601 22.7401C16.8901 22.7501 16.8101 22.7501 16.7401 22.7501ZM9.56008 17.1001C10.8101 18.3701 12.6101 19.1101 14.5001 19.1101C14.7201 19.1101 14.9301 19.2101 15.0801 19.3801L16.5601 21.1601C16.6301 21.2501 16.7201 21.2601 16.7801 21.2501C16.8201 21.2501 16.9301 21.2201 16.9901 21.1001L18.3301 18.1501C18.3901 18.0301 18.4701 17.9201 18.5801 17.8501C20.2801 16.6501 21.2601 14.8301 21.2601 12.8601C21.2601 10.4601 19.7901 8.33014 17.5501 7.28014C17.6901 7.84014 17.7601 8.41011 17.7601 9.00011C17.7601 13.1601 14.2501 16.5701 9.87008 16.7401L9.56008 17.1001Z" />
<path d="M12 9.75H7C6.59 9.75 6.25 9.41 6.25 9C6.25 8.59 6.59 8.25 7 8.25H12C12.41 8.25 12.75 8.59 12.75 9C12.75 9.41 12.41 9.75 12 9.75Z" />
</svg>

<?xml version="1.0" encoding="UTF-8"?>
<svg width="24" height="24" viewBox="0 0 24 24" xmlns="http://www.w3.org/2000/svg">
 <path d="m7.26 18.89c-0.08 0-0.15999-0.01-0.23999-0.02-0.6-0.08-1.11-0.46-1.36-1l-1.26-2.7701c-2-1.48-3.15-3.6899-3.15-6.0899 0-4.27 3.7-7.75 8.25-7.75 3.21 0 6.14 1.76 7.47 4.49 0.51 1.01 0.78 2.11 0.78 3.26 0 4.16-3.51 7.57-7.89 7.74l-1.26 1.52c-0.34 0.39-0.83002 0.62-1.34 0.62zm2.24-16.14c-3.72 0-6.75 2.8-6.75 6.25 0 1.97 0.97999 3.7899 2.68 4.9899 0.11 0.08 0.2 0.18 0.25 0.3l1.34 2.95c0.05 0.11 0.15 0.1401 0.2 0.1401 0.05 0.01 0.15-1e-4 0.22-0.0801l1.48-1.7799c0.14-0.17 0.35-0.27 0.58-0.27 3.72 0 6.75-2.8 6.75-6.25 0-0.91-0.21-1.78-0.62-2.59-1.08-2.23-3.49-3.66-6.13-3.66z"/>
 <path d="m16.74 22.75c-0.52 0-1-0.23-1.34-0.63l-1.26-1.51c-2.42-0.1-4.7-1.21-6.16-3.01-0.23-0.28-0.21999-0.68 0.01001-0.95l0.92999-1.12c0.14-0.17 0.35-0.27 0.58-0.27 3.72 0 6.75-2.8 6.75-6.25 0-0.91-0.21-1.78-0.62-2.59-0.13-0.26-0.1-0.56999 0.08-0.79999s0.48-0.33002 0.76-0.27002c3.7 0.85 6.28 3.94 6.28 7.52 0 2.4-1.15 4.61-3.15 6.09l-1.26 2.77c-0.26 0.56-0.77 0.94-1.38 1.01-0.07 0.01-0.15 0.01-0.22 0.01zm-7.18-5.65c1.25 1.27 3.05 2.01 4.94 2.01 0.22 0 0.43 0.1 0.58 0.27l1.48 1.78c0.07 0.09 0.16 0.1 0.22 0.09 0.04 0 0.15-0.03 0.21-0.15l1.34-2.95c0.06-0.12 0.14-0.23 0.25-0.3 1.7-1.2 2.68-3.02 2.68-4.99 0-2.4-1.47-4.53-3.71-5.58 0.14 0.56 0.21 1.13 0.21 1.72 0 4.16-3.51 7.57-7.89 7.74l-0.31 0.36z"/>
 <path d="m12 9.75h-5c-0.41 0-0.75-0.34-0.75-0.75s0.34-0.75 0.75-0.75h5c0.41 0 0.75 0.34 0.75 0.75s-0.34 0.75-0.75 0.75z"/>
</svg>
